symbols/web/bedroom_parent/materialsymbolssharp/bedroom_parent_wght200gradN25fill1_48px.svg

<svg xmlns="http://www.w3.org/2000/svg" height="48" width="48"><path d="M10.8 32.85h1.8V29.6h22.8v3.25h1.8v-9.3L35.3 22v-5.15H26q-.6 0-1.15.25-.55.25-.85.6-.35-.35-.9-.6t-1.15-.25H12.7V22l-1.9 1.55Zm14-10.3v-4.2h9v4.2Zm-10.6 0v-4.2h9.05v4.2Zm-1.6 5.55v-4.05h22.8v4.05ZM6.05 41.95V6.05h35.9v35.9Z"/></svg>

<svg xmlns="http://www.w3.org/2000/svg" height="48" width="48"><path d="M10.8 32.85H12.6V29.6H35.4V32.85H37.2V23.55L35.3 22V16.85H26Q25.4 16.85 24.85 17.1Q24.3 17.35 24 17.7Q23.65 17.35 23.1 17.1Q22.55 16.85 21.95 16.85H12.7V22L10.8 23.55ZM24.8 22.55V18.35H33.8V22.55ZM14.2 22.55V18.35H23.25V22.55ZM12.6 28.1V24.05H35.4V28.1ZM6.05 41.95V6.05H41.95V41.95Z"/></svg>
